X:81
T:The Fat Cardinal
C:Ed Yother
C:http://edyother.com
M:C|
R:Reel
K:Edor
EFGA (3(BcB) Bc | BAFA BAdB | DEFA (3(ABA) dB | AFAB AFED :|
|: Egfe defe | ABde fedB | DEFA (3(ABA) fe | dBAF EDB,D :||

